!!!COM: Ockeghem, Johannes
!!!CDT: ~1425-1497/02/06
!!!OTL: Ma maistresse
!!!AGN: Song; Chanson
!!!SCT: Ock3012
!!!SCA: Ock3012
!!!voices: 3
**kern	**text	**kern	**text	**kern	**text
*staff3	*	*staff2	*staff2	*staff1	*staff1
*Ivox	*	*Ivox	*	*Ivox	*
*I"Contra	*	*I"Tenor	*	*I"Discantus	*
*I'C	*	*I'T	*	*I'D	*
*clefGv2	*	*clefGv2	*	*clefG2	*
*k[b-]	*	*k[b-]	*	*k[b-]	*
*M3/1	*	*M3/1	*	*M3/1	*
*met(O)	*	*met(O)	*	*met(O)	*
=1-	=1	=1-	=1-	=1-	=1-
!!LO:TX:Z=12:t=Virelai
1.F	Ma	0.f	Ma	0cc	Ma
2G/	.	.	.	.	.
1A	mais-	.	.	1a	mais-
=2	=2	=2	=2	=2	=2
1.B-	-tres-	1d	mais-	1.dd	-tres-
.	.	1.g	-tres-	.	.
2G/	.	.	.	2b-\	.
1G	-se	.	.	2.b-\	-se
.	.	2e\	.	.	.
.	.	.	.	4g/	.
=3	=3	=3	=3	=3	=3
1A	et	2.e\	-se	1cc	et
.	.	4c\	et	.	.
1F	ma	1f	ma	2dd\	ma
.	.	.	.	1ff	plus
1c	plus	1g	plus	.	.
.	.	.	.	2ee\	.
=4	=4	=4	=4	=4	=4
0F	qu'aul	1f	qu'aul-	2dd\	qu'aul-
.	.	.	.	1cc	.
.	.	2c\	tre a-	.	.
.	.	1f	.	2a/	-tre a-
1G	-tre a-	.	.	1g	.
.	.	2e\	.	.	.
=5	=5	=5	=5	=5	=5
2.B-\	-my-	2d\	-my-	1.f	-my-
.	.	2B-\	.	.	.
4A/	.	.	.	.	.
2F/	.	1A	.	.	.
2c\	.	.	.	2e/	.
2d\	.	2B-\	.	2d/	.
2e\	.	2A/	.	2c/	.
=6	=6	=6	=6	=6	=6
2f\	.	2F/	.	2.a/	.
1e	.	1c	.	.	.
.	.	.	.	8g/L	.
.	.	.	.	8a/J	.
.	.	.	.	4g/	.
.	.	.	.	4f/	.
1c	.	2F/	.	1f	.
.	.	1G	.	.	.
2B-\	.	.	.	2e/	.
=7	=7	=7	=7	=7	=7
1.c	-e,	0F	-e,	1f	-e,
.	.	.	.	1r	.
2.A/	De	.	.	.	.
.	.	2r	.	1f	De
4F/	.	.	.	.	.
2c\	.	2A/	De	.	.
=8	=8	=8	=8	=8	=8
2B-\	mon	2G/	mon	2e/	mon
2A/	.	1c	.	2c/	.
1G	de-	.	.	1d	de-
.	.	2Bni\	de-	.	.
1g	-sir	2c\	-sir	2c/	-sir
.	.	[2G/	.	2e/	.
=9	=9	=9	=9	=9	=9
2r	.	4G/]	.	2d/	.
.	.	4A/	.	.	.
2d\	la	4B-\	.	1g	.
.	.	4c\	.	.	.
2.c\	mor-	1A	.	.	.
.	.	.	.	2f/	la
4d\	.	.	.	.	.
1e	.	2G/	la	2g/	mor-
.	.	2c\	.	2a/	.
=10	=10	=10	=10	=10	=10
2d\	-tel-	2B-\	mor-	2g/	.
2c\	.	2c\	.	1cc	-tel-
2.f\	-le	1d	-tel-	.	.
.	.	.	.	2b-\	-le e-
4g\	.	.	.	.	.
1a	.	2c\	-le e-	2cc\	.
.	.	2f\	.	2dd\	.
=11	=11	=11	=11	=11	=11
2r	.	2e\	-ne-	2cc\	-ne-
2a\	e-	2f\	.	1ff	-my-
2g\	.	1g	-my-	.	.
2b-\	-ne-	.	.	2ee\	.
2a\	-my-	2f\	.	1ff	-e,
2f\	.	2a\	.	.	.
=12	=12	=12	=12	=12	=12
2g\	-e,	2g\	.	1r	.
2e\	.	1cc	.	.	.
1d	Par-	.	.	1ff	Par-
.	.	2bni\	.	.	.
1c	-faic-	2.cc\	-e,	2ee\	-faic-
.	.	.	.	[2gg\	.
.	.	4b-i\	.	.	.
=13	=13	=13	=13	=13	=13
1c	-te en	2g\	.	2gg\]	.
.	.	2a\	Par-	2cc\	-te en
1G	biens	1.g	-faic-	2dd\	biens
.	.	.	.	1ee	.
2r	.	.	.	.	.
2c\	s'on-	2e\	-te en	2ee\	s'on-
=14	=14	=14	=14	=14	=14
2A/	-ques	2c\	biens	1ee	-ques
2G/	.	2g\	.	.	.
2c\	.	2r	.	1ee	maiz
2r	.	2.c\	s'on-	.	.
2g\	mais	.	.	1ee	le
.	.	4B-\	.	.	.
2a\	le	2A/	.	.	.
=15	=15	=15	=15	=15	=15
1b-	fut	2G/	-ques	2.gg\	fut
.	.	2.B-\	maiz	.	.
.	.	.	.	4ff\	.
1g	.	.	.	1dd	.
.	.	4A/	.	.	.
.	.	2B-\	.	.	.
2a\	.	2A/	.	[1ee	.
2b-\	.	2G/	le	.	.
=16	=16	=16	=16	=16	=16
1.cc	fem-	2.A/	fut	1ee]	.
.	.	4G/	.	.	.
.	.	2A/	fem-	1ff	fem-
2b-\	.	2B-\	.	.	.
1g	.	2c\	.	[1ee	.
.	.	2G/	.	.	.
=17	=17	=17	=17	=17	=17
1a	.	2.c\	.	2ee\]	.
.	.	.	.	2cc\	.
.	.	4A/	.	.	.
2g\	.	2B-\	.	2dd\	.
1g	.	2c\	.	1cc	.
.	.	1d	.	.	.
2f\	.	.	.	2bni\	.
=18	=18	=18	=18	=18	=18
0g	-me,	0.c	-me,	1cc	-me,
.	.	.	.	1r	.
1e	Cel-	.	.	2a/	Cel-
.	.	.	.	2b-\	.
=19	=19	=19	=19	=19	=19
2.f\	-le	1r	.	2dd\	-le
.	.	.	.	1cc	.
4e\	.	.	.	.	.
1c	.	2r	.	.	.
.	.	2c\	Cel-	2a/	.
[1B-	seu-	2d\	-le	2b-\	seu-
.	.	2e\	seu-	2g/	.
=20	=20	=20	=20	=20	=20
2B-\]	.	1.f	-le	1f	-le
2A/	.	.	.	.	.
2F/	-le	.	.	1r	.
2B-\	de	2d\	de	.	.
2c\	.	2e-i\	qui	1cc	de
2A/	.	2c\	.	.	.
=21	=21	=21	=21	=21	=21
0B-	qui	1B-	.	1.dd	qui
.	.	2r	.	.	.
.	.	2B-\	court	2cc\	.
1G	.	2d\	.	2.b-\	.
.	.	2e\	.	.	.
.	.	.	.	4a/	.
=22	=22	=22	=22	=22	=22
0F	court	1f	.	1a	court
.	.	1.a	bruit	1r	.
1A	bruit	.	.	1cc	bruit
.	.	2d\	.	.	.
=23	=23	=23	=23	=23	=23
0.B-	et	1d	et	1.dd	et
.	.	2r	.	.	.
.	.	2d\	fa-	1ff	fa-
.	.	2f\	.	.	.
.	.	2g\	.	4ee\	.
.	.	.	.	4dd\	.
=24	=24	=24	=24	=24	=24
0A	fa-	1.a	.	1.cc	.
.	.	2f\	.	2dd\	.
1G	.	2g\	.	2ee\	.
.	.	2e\	.	4dd\	.
.	.	.	.	4ee\	.
=25	=25	=25	=25	=25	=25
2B-\	.	2d\	.	1ff	.
2A/	.	2.a\	.	.	.
2c\	.	.	.	2ee\	.
.	.	4g\	.	.	.
2d\	.	2f\	.	1dd	.
1A	.	1e	.	.	.
.	.	.	.	2cc#i\	.
=26	=26	=26	=26	=26	=26
1a	-me,	1.d	-me	0dd	-me
1d	.	.	.	.	.
.	.	4c\	.	.	.
.	.	4B-\	.	.	.
1e	D'es-	2.A/	D'es-	1cc	D'es-
.	.	4G/	.	.	.
=27	=27	=27	=27	=27	=27
1.f	-tre	1.d	-tre	1b-	-tre
.	.	.	.	2a/	.
2e\	sans	2c\	sans	1a	sans
2c\	.	2A/	.	.	.
2d\	.	2B-\	.	2g/	.
=28	=28	=28	=28	=28	=28
2.f\	.	2d\	.	2.b-\	.
.	.	2c\	.	.	.
4e\	.	.	.	4a/	.
4d\	.	1F	.	4g/	.
4c\	.	.	.	4f/	.
1c	.	.	.	1f	.
.	.	1G	.	.	.
2B-\	.	.	.	2e/	.
=29	=29	=29	=29	=29	=29
0c	per,	0F	per,	1f	per,
.	.	.	.	1r	.
1F	ne	1a	ne	1ff	ne
=30	=30	=30	=30	=30	=30
2G/	vous	2g\	vous	2ee\	vous
1B-	.	1f	.	2.dd\	.
.	.	.	.	4cc\	.
2c\	ver-	2e\	.	2.cc\	.
[1F	-ray	1f	ver-	.	.
.	.	.	.	4b-\	.
.	.	.	.	4a/	.
.	.	.	.	4g/	.
=31	=31	=31	=31	=31	=31
0F]	.	1a	-ray	2cc\	ver-
.	.	.	.	2dd\	.
.	.	2r	.	1ff	-ray
.	.	2a\	je	.	.
1G	je	2g\	.	2ee\	je
.	.	[2b-\	my-	2dd\	.
=32	=32	=32	=32	=32	=32
2G/	my-	2b-\]	.	1gg	my-
2c\	.	1a	.	.	.
2d\	.	.	.	1ff	.
2B-\	.	1g	.	.	.
2c\	.	.	.	2ee\	.
[2d\	.	2f\	.	[2dd\	.
=33	=33	=33	=33	=33	=33
2d\]	.	2a\	.	4dd\]	.
.	.	.	.	4cc\	.
2G/	.	2g\	.	4b-\	.
.	.	.	.	4a/	.
2c\	.	2e\	.	2g/	.
2F/	.	2f\	.	1cc	.
1G	.	1d	.	.	.
.	.	.	.	2bni\	.
=34	=34	=34	=34	=34	=34
0.gl	-e?	0.cl	-e?	0.ccl	-e?
!!LO:LB:i:g=z
=||!|:	=||!|:	=||!|:	=||!|:	=||!|:	=||!|:
*>B	*>B	*>B	*>B	*>B	*>B
*clefGv2	*	*clefGv2	*	*clefG2	*
*k[b-]	*	*k[]	*	*k[]	*
*M2/1	*	*M2/1	*	*M2/1	*
*met(C|)	*	*met(C|)	*	*met(C|)	*
!!section: Helas, de vous
!!!OMD: Helas, de vous
0d	He-	0f	He-	0a	He-
=35	=35	=35	=35	=35	=35
1A	-las,	1e	-las,	1cc	-las,
1A	de	1e	de	1cc	de
=36	=36	=36	=36	=36	=36
0a	vous	[0d	vous	1.dd	vous
.	.	.	.	2cc\	.
=37	=37	=37	=37	=37	=37
0f	.	1d]	.	1a	.
.	.	1d	bien	1r	.
=38	=38	=38	=38	=38	=38
1d	bien	1f	plain-	1dd	bien
2A/	plain-	1e	.	1cc	plain-
2c\	.	.	.	.	.
=39	=39	=39	=39	=39	=39
1B-	-dre	1f	-dre	1dd	-dre
1G	.	1g	.	1ee	.
=40	=40	=40	=40	=40	=40
0d	me	1a	me	1ff	.
.	.	1f	de-	[1dd	me
=41	=41	=41	=41	=41	=41
0A	de-	0e	-vroi-	1dd]	.
.	.	.	.	1cc	de-
=42	=42	=42	=42	=42	=42
0B-	-vroi-	0d	-e,	1.dd	-vroi-
.	.	.	.	2cc\	.
=43	=43	=43	=43	=43	=43
1c	-e,	1r	.	1a	-e,
1G	S'il	1d	S'il	1b	S'il
=44	=44	=44	=44	=44	=44
0c	ne	0A	ne	1cc	.
.	.	.	.	[1a	ne
=45	=45	=45	=45	=45	=45
0d	vous	0B-i	vous	1a]	.
.	.	.	.	1g	vous
=46	=46	=46	=46	=46	=46
0e	plaist	1A	plaist	0a	plaist
.	.	1A	que	.	.
=47	=47	=47	=47	=47	=47
1f	.	0d	.	2b-i\	que
.	.	.	.	2a/	.
1f	que	.	.	2g/	.
.	.	.	.	2f/	.
=48	=48	=48	=48	=48	=48
1g	bref-	0c	bref-	1e	bref-
[1e	-ve-	.	.	[1a	-ve-
=49	=49	=49	=49	=49	=49
2e\]	.	1A	-ve-	1a]	.
2c\	.	.	.	.	.
1d	.	1B-i	.	[1g	-ment
=50	=50	=50	=50	=50	=50
1e	-ment	1c	-ment	1g]	.
[1c	vous	1F	vous	[1f	vous
=51	=51	=51	=51	=51	=51
1c]	.	0G	voy-	1f]	.
1B-	voy-	.	.	1e	voy-
=52	=52	=52	=52	=52	=52
0c	-e,	0F	-e,	1f	-e,
.	.	.	.	1r	.
=53	=53	=53	=53	=53	=53
1.f	M'a-	0r	.	1.a	M'a-
2g\	.	.	.	2b\	.
=54	=54	=54	=54	=54	=54
0a	-mour,	1.A	M'a-	1.cc	-mour,
.	.	2B\	.	2dd\	.
=55	=55	=55	=55	=55	=55
1g	.	1c	-mour,	1ee	.
1g	par	1c	par	1ee	par
=56	=56	=56	=56	=56	=56
1f	qui	0d	qui	1.ff	qui
1d	.	.	.	.	.
.	.	.	.	2ee\	.
=57	=57	=57	=57	=57	=57
0A	.	1r	.	0cc	.
.	.	1e	d'aul-	.	.
=58	=58	=58	=58	=58	=58
0a	d'aul-	[0f	.	1.dd	d'aul-
.	.	.	.	2cc\	.
=59	=59	=59	=59	=59	=59
1d	.	1f]	.	1a	.
1e	-tre ay-	1e	-tre ay-	1g	-tre ay-
=60	=60	=60	=60	=60	=60
1f	-mer	1d	-mer	1.b	-mer
[1e	.	1c	.	.	.
.	.	.	.	4a/	.
.	.	.	.	4b\	.
=61	=61	=61	=61	=61	=61
1e]	.	0A	.	1.cc	.
1c	.	.	.	.	.
.	.	.	.	2a/	.
=62	=62	=62	=62	=62	=62
1d	n'ay	0G	n'ay	1b	.
1e	.	.	.	[1dd	n'ay
=63	=63	=63	=63	=63	=63
[0f	.	[0d	.	2dd\]	.
.	.	.	.	2cc\	.
.	.	.	.	2b\	.
.	.	.	.	2a/	.
=64	=64	=64	=64	=64	=64
1f]	.	1d]	.	1b	puis-
[1e	puis-	1c	puis-	[1cc	-san-
=65	=65	=65	=65	=65	=65
1e]	.	0A	-san-	2cc\]	.
.	.	.	.	2a/	.
1c	.	.	.	[1a	.
=66	=66	=66	=66	=66	=66
0d	-san-	0B	.	1a]	.
.	.	.	.	1g#i	.
=67	=67	=67	=67	=67	=67
0el	-ce.	0Al	-ce.	0al	-ce.
!!LO:LB:g=z
=||	=||	==||	==||	==||	==||
!!!RDF**kern: l=long note in original notation
!!!RDF**kern: i=editorial accidental
!!!RDF**kern: V=start of tuplet marker
!!!RDF**kern: Z=end of tuplet marker
!!!ENC: Chris Gage 06-25-2012
!!!END: 2015/10/29/
!!!EED: Jesse Rodin
!!!EEV: 2015/10/31/
!!!ONB: Translated from MusicXML and edited on 2015/10/31/ by Craig Sapp
!!muse2ps: C^@{COM}^i2I150v100,100,120Q16z18c62l2600
!!!COM: Ockeghem, Johannes
!!!CDT: ~1425-1497/02/06
!!!OTL: Ma maistresse
!!!AGN: Song; Chanson
!!!SCT: Ock3012
!!!SCA: Ock3012
!!!voices: 3
*thru	*thru	*thru	*thru	*thru	*thru
*staff3	*	*staff2	*staff2	*staff1	*staff1
*Ivox	*	*Ivox	*	*Ivox	*
*I"Contra	*	*I"Tenor	*	*I"Discantus	*
*I'C	*	*I'T	*	*I'D	*
*>B	*>B	*>B	*>B	*>B	*>B
*clefGv2	*	*clefGv2	*	*clefG2	*
*k[b-]	*	*k[]	*	*k[]	*
*M2/1	*	*M2/1	*	*M2/1	*
*met(C|)	*	*met(C|)	*	*met(C|)	*
!!section: Helas, de vous
!!!OMD: Helas, de vous
0d	Car	0f	Car	0a	Car
=68	=68	=68	=68	=68	=68
1A	sans	1e	sans	1cc	sans
1A	vous	1e	vous	1cc	vous
=69	=69	=69	=69	=69	=69
0a	voir,	[0d	voir,	1.dd	voir,
.	.	.	.	2cc\	.
=70	=70	=70	=70	=70	=70
0f	.	1d]	.	1a	.
.	.	1d	en	1r	.
=71	=71	=71	=71	=71	=71
1d	en	1f	quel-	1dd	en
2A/	quel-	1e	.	1cc	quel-
2c\	.	.	.	.	.
=72	=72	=72	=72	=72	=72
1B-	-que	1f	-que	1dd	-que
1G	.	1g	.	1ee	.
=73	=73	=73	=73	=73	=73
0d	part	1a	part	1ff	part
.	.	1f	que	[1dd	.
=74	=74	=74	=74	=74	=74
0A	que	0e	soy-	1dd]	.
.	.	.	.	1cc	que
=75	=75	=75	=75	=75	=75
0B-	soy-	0d	-e,	1.dd	soy-
.	.	.	.	2cc\	.
=76	=76	=76	=76	=76	=76
1c	-e,	1r	.	1a	-e,
1G	Tout	1d	Tout	1b	Tout
=77	=77	=77	=77	=77	=77
0c	ce	0A	ce	1cc	.
.	.	.	.	[1a	ce
=78	=78	=78	=78	=78	=78
0d	que	0B-i	que	1a]	.
.	.	.	.	1g	que
=79	=79	=79	=79	=79	=79
0e	voys	1A	voys	0a	voys
.	.	1A	me	.	.
=80	=80	=80	=80	=80	=80
1f	.	0d	.	2b-i\	me
.	.	.	.	2a/	.
1f	me	.	.	2g/	.
.	.	.	.	2f/	.
=81	=81	=81	=81	=81	=81
1g	des-	0c	des-	1e	des-
[1e	-plais	.	.	[1a	-plaist
=82	=82	=82	=82	=82	=82
2e\]	.	1A	-plaist	1a]	.
2c\	.	.	.	.	.
1d	.	1B-i	.	[1g	et
=83	=83	=83	=83	=83	=83
1e	et	1c	et	1g]	.
[1c	en-	1F	en-	[1f	en-
=84	=84	=84	=84	=84	=84
1c]	.	0G	-noy-	1f]	.
1B-	-noy-	.	.	1e	-noy-
=85	=85	=85	=85	=85	=85
0c	-e,	0F	-e,	1f	-e,
.	.	.	.	1r	.
=86	=86	=86	=86	=86	=86
1.f	Ne	0r	.	1.a	Ne
2g\	.	.	.	2b\	.
=87	=87	=87	=87	=87	=87
0a	jus-	1.A	Ne	1.cc	jus-
.	.	2B\	.	2dd\	.
=88	=88	=88	=88	=88	=88
1g	.	1c	jus-	1ee	.
1g	-qu'a	1c	-qu'a-	1ee	-qu'a-
=89	=89	=89	=89	=89	=89
1f	-lors	0d	-lors	1.ff	-lors
1d	.	.	.	.	.
.	.	.	.	2ee\	.
=90	=90	=90	=90	=90	=90
0A	.	1r	.	0cc	.
.	.	1e	je	.	.
=91	=91	=91	=91	=91	=91
0a	je	[0f	n'au-	1.dd	je
.	.	.	.	2cc\	.
=92	=92	=92	=92	=92	=92
1d	.	1f]	.	1a	n'au-
1e	n'au-	1e	-ray	1g	-ray
=93	=93	=93	=93	=93	=93
1f	-ray	1d	souf-	1.b	souf-
[1e	souf-	1c	.	.	.
.	.	.	.	4a/	.
.	.	.	.	4b\	.
=94	=94	=94	=94	=94	=94
1e]	.	0A	.	1.cc	.
1c	.	.	.	.	.
.	.	.	.	2a/	.
=95	=95	=95	=95	=95	=95
1d	.	0G	.	1b	.
1e	.	.	.	[1dd	.
=96	=96	=96	=96	=96	=96
[0f	.	[0d	.	2dd\]	.
.	.	.	.	2cc\	.
.	.	.	.	2b\	.
.	.	.	.	2a/	.
=97	=97	=97	=97	=97	=97
1f]	.	1d]	.	1b	-fi-
[1e	-fi-	1c	-fi-	[1cc	-san-
=98	=98	=98	=98	=98	=98
1e]	.	0A	-san-	2cc\]	.
.	.	.	.	2a/	.
1c	.	.	.	[1a	.
=99	=99	=99	=99	=99	=99
0d	-san-	0B	.	1a]	.
.	.	.	.	1g#i	.
=100	=100	=100	=100	=100	=100
0el	-ce.	0Al	-ce.	0al	-ce.
!!LO:LB:g=z
=||	=||	=||	=||	=||	=||
!!!RDF**kern: l=long note in original notation
!!!RDF**kern: i=editorial accidental
!!!RDF**kern: V=start of tuplet marker
!!!RDF**kern: Z=end of tuplet marker
!!!ENC: Chris Gage 06-25-2012
!!!END: 2015/10/29/
!!!EED: Jesse Rodin
!!!EEV: 2015/10/31/
!!!ONB: Translated from MusicXML and edited on 2015/10/31/ by Craig Sapp
!!muse2ps: C^@{COM}^i2I150v100,100,120Q16z18c62l2600
!!!COM: Ockeghem, Johannes
!!!CDT: ~1425-1497/02/06
!!!OTL: Ma maistresse
!!!AGN: Song; Chanson
!!!SCT: Ock3012
!!!SCA: Ock3012
!!!voices: 3
*thru	*thru	*thru	*thru	*thru	*thru
*staff3	*	*staff2	*staff2	*staff1	*staff1
*Ivox	*	*Ivox	*	*Ivox	*
*I"Contra	*	*I"Tenor	*	*I"Discantus	*
*I'C	*	*I'T	*	*I'D	*
*>A	*>A	*>A	*>A	*>A	*>A
*clefGv2	*	*clefGv2	*	*clefG2	*
*k[b-]	*	*k[b-]	*	*k[b-]	*
*M3/1	*	*M3/1	*	*M3/1	*
*met(O)	*	*met(O)	*	*met(O)	*
=101-	=101	=101-	=101-	=101-	=101-
!	!	!	!	!LO:TX:Z=12:t=Virelai	!
1.F	In-	0.f	In-	0cc	In-
2G/	.	.	.	.	.
1A	-ces-	.	.	1a	-ces-
=102	=102	=102	=102	=102	=102
1.B-	-sam-	1d	-ces-	1.dd	-sam-
.	.	1.g	-sam-	.	.
2G/	.	.	.	2b-\	.
1G	-ment	.	.	2.b-\	-ment
.	.	2e\	-ment	.	.
.	.	.	.	4g/	.
=103	=103	=103	=103	=103	=103
1A	mon	2.e\	mon	1cc	mon
.	.	4c\	.	.	.
1F	do-	1f	do-	2dd\	do-
.	.	.	.	1ff	-lent
1c	-lent	1g	-lent	.	.
.	.	.	.	2ee\	.
=104	=104	=104	=104	=104	=104
0F	cueur	1f	cueur	2dd\	cueur
.	.	.	.	1cc	.
.	.	2c\	.	.	.
.	.	1f	lar-	2a/	lar-
1G	lar-	.	.	1g	.
.	.	2e\	.	.	.
=105	=105	=105	=105	=105	=105
2.B-\	-my-	2d\	-my-	1.f	-my-
.	.	2B-\	.	.	.
4A/	.	.	.	.	.
2F/	.	1A	.	.	.
2c\	.	.	.	2e/	.
2d\	.	2B-\	.	2d/	.
2e\	.	2A/	.	2c/	.
=106	=106	=106	=106	=106	=106
2f\	.	2F/	.	2.a/	.
1e	.	1c	.	.	.
.	.	.	.	8g/L	.
.	.	.	.	8a/J	.
.	.	.	.	4g/	.
.	.	.	.	4f/	.
1c	.	2F/	.	1f	.
.	.	1G	.	.	.
2B-\	.	.	.	2e/	.
=107	=107	=107	=107	=107	=107
1.c	-e	0F	-e	1f	-e
.	.	.	.	1r	.
2.A/	Doub-	.	.	.	.
.	.	2r	.	1f	Doub-
4F/	.	.	.	.	.
2c\	.	2A/	Doub-	.	.
=108	=108	=108	=108	=108	=108
2B-\	-tant	2G/	-tant	2e/	-tant
2A/	.	1c	.	2c/	.
1G	qu'en	.	.	1d	qu'en
.	.	2Bni\	qu'en	.	.
1g	vous	2c\	vous	2c/	vous
.	.	[2G/	.	2e/	.
=109	=109	=109	=109	=109	=109
2r	.	4G/]	.	2d/	.
.	.	4A/	.	.	.
2d\	pi-	4B-\	.	1g	.
.	.	4c\	.	.	.
2.c\	-ti&eacute;	1A	.	.	.
.	.	.	.	2f/	pi-
4d\	.	.	.	.	.
1e	.	2G/	pi-	2g/	-ti&eacute;
.	.	2c\	.	2a/	.
=110	=110	=110	=110	=110	=110
2d\	soit	2B-\	-ti&eacute;	2g/	.
2c\	.	2c\	.	1cc	soit
2.f\	en-	1d	soit	.	.
.	.	.	.	2b-\	.
4g\	.	.	.	.	.
1a	.	2c\	en-	2cc\	en-
.	.	2f\	.	2dd\	.
=111	=111	=111	=111	=111	=111
2r	.	2e\	-dor-	2cc\	-dor-
2a\	-dor-	2f\	.	1ff	-my-
2g\	.	1g	-my-	.	.
2b-\	.	.	.	2ee\	.
2a\	-my-	2f\	.	1ff	-e.
2f\	.	2a\	.	.	.
=112	=112	=112	=112	=112	=112
2g\	-e.	2g\	.	1r	.
2e\	.	1cc	.	.	.
1d	Que	.	.	1ff	Que
.	.	2bni\	.	.	.
1c	ja-	2.cc\	-e.	2ee\	ja
.	.	.	.	[2gg\	.
.	.	4b-i\	.	.	.
=113	=113	=113	=113	=113	=113
1c	ne	2g\	.	2gg\]	.
.	.	2a\	Que	2cc\	ne
1G	soit,	1.g	ja	2dd\	soit,
.	.	.	.	1ee	.
2r	.	.	.	.	.
2c\	ma	2e\	ne	2ee\	ma
=114	=114	=114	=114	=114	=114
2A/	tant	2c\	soit,	1ee	tant
2G/	.	2g\	.	.	.
2c\	.	2r	.	1ee	a-
2r	.	2.c\	ma	.	.
2g\	a-	.	.	1ee	-m&eacute;-
.	.	4B-\	.	.	.
2a\	.	2A/	.	.	.
=115	=115	=115	=115	=115	=115
1b-	m&eacute;-	2G/	tant	2.gg\	.
.	.	2.B-\	a-	.	.
.	.	.	.	4ff\	.
1g	.	.	.	1dd	.
.	.	4A/	.	.	.
.	.	2B-\	.	.	.
2a\	-e	2A/	-m&eacute;-	[1ee	-e
2b-\	.	2G/	.	.	.
=116	=116	=116	=116	=116	=116
1.cc	da-	2.A/	.	1ee]	.
.	.	4G/	.	.	.
.	.	2A/	-e	1ff	da-
2b-\	.	2B-\	.	.	.
1g	.	2c\	da-	[1ee	.
.	.	2G/	.	.	.
=117	=117	=117	=117	=117	=117
1a	.	2.c\	.	2ee\]	.
.	.	.	.	2cc\	.
.	.	4A/	.	.	.
2g\	.	2B-\	.	2dd\	.
1g	.	2c\	.	1cc	.
.	.	1d	.	.	.
2f\	.	.	.	2bni\	.
=118	=118	=118	=118	=118	=118
0g	-me;	0.c	-me;	1cc	-me;
.	.	.	.	1r	.
1e	Maiz	.	.	2a/	Maiz
.	.	.	.	2b-\	.
=119	=119	=119	=119	=119	=119
2.f\	s'ain-	1r	.	2dd\	s'ain-
.	.	.	.	1cc	.
4e\	.	.	.	.	.
1c	.	2r	.	.	.
.	.	2c\	Maiz	2a/	.
[1B-	-sy	2d\	s'ain-	2b-\	-sy
.	.	2e\	-sy	2g/	.
=120	=120	=120	=120	=120	=120
2B-\]	.	1.f	est,	1f	est,
2A/	.	.	.	.	.
2F/	est,	.	.	1r	.
2B-\	si	2d\	si	.	.
2c\	.	2e-i\	.	1cc	si
2A/	.	2c\	.	.	.
=121	=121	=121	=121	=121	=121
0B-	mal-	1B-	.	1.dd	mal-
.	.	2r	.	.	.
.	.	2B-\	mal-	2cc\	.
1G	-heu-	2d\	.	2.b-\	-heu-
.	.	2e\	.	.	.
.	.	.	.	4a/	.
=122	=122	=122	=122	=122	=122
0F	-reux	1f	-heu-	1a	-reux
.	.	1.a	-reux	1r	.
1A	me	.	.	1cc	me
.	.	2d\	.	.	.
=123	=123	=123	=123	=123	=123
0.B-	cla-	1d	me	1.dd	cla-
.	.	2r	.	.	.
.	.	2d\	cla-	1ff	.
.	.	2f\	.	.	.
.	.	2g\	.	4ee\	.
.	.	.	.	4dd\	.
=124	=124	=124	=124	=124	=124
0A	.	1.a	.	1.cc	.
.	.	2f\	.	2dd\	.
1G	.	2g\	.	2ee\	.
.	.	2e\	.	4dd\	.
.	.	.	.	4ee\	.
=125	=125	=125	=125	=125	=125
2B-\	.	2d\	.	1ff	.
2A/	.	2.a\	.	.	.
2c\	.	.	.	2ee\	.
.	.	4g\	.	.	.
2d\	.	2f\	.	1dd	.
1A	.	1e	.	.	.
.	.	.	.	2cc#i\	.
=126	=126	=126	=126	=126	=126
1a	-me,	1.d	-me,	0dd	-me,
1d	.	.	.	.	.
.	.	4c\	.	.	.
.	.	4B-\	.	.	.
1e	Que	2.A/	Que	1cc	Que
.	.	4G/	.	.	.
=127	=127	=127	=127	=127	=127
1.f	plus	1.d	plus	1b-	plus
.	.	.	.	2a/	.
2e\	ne	2c\	ne	1a	ne
2c\	.	2A/	.	.	.
2d\	.	2B-\	.	2g/	.
=128	=128	=128	=128	=128	=128
2.f\	.	2d\	.	2.b-\	.
.	.	2c\	.	.	.
4e\	.	.	.	4a/	.
4d\	.	1F	.	4g/	.
4c\	.	.	.	4f/	.
1c	.	.	.	1f	.
.	.	1G	.	.	.
2B-\	.	.	.	2e/	.
=129	=129	=129	=129	=129	=129
0c	quiers	0F	quiers	1f	quiers
.	.	.	.	1r	.
1F	vi-	1a	vi-	1ff	vi-
=130	=130	=130	=130	=130	=130
2G/	-vre heu	2g\	-vre heu-	2ee\	-vre heu-
1B-	.	1f	.	2.dd\	.
.	.	.	.	4cc\	.
2c\	.	2e\	.	2.cc\	.
[1F	-re	1f	-re	.	.
.	.	.	.	4b-\	.
.	.	.	.	4a/	.
.	.	.	.	4g/	.
=131	=131	=131	=131	=131	=131
0F]	.	1a	ne	2cc\	-re
.	.	.	.	2dd\	.
.	.	2r	.	1ff	ne
.	.	2a\	de-	.	.
1G	ne	2g\	.	2ee\	de-
.	.	[2b-\	-my-	2dd\	.
=132	=132	=132	=132	=132	=132
2G/	de-	2b-\]	.	1gg	-my-
2c\	.	1a	.	.	.
2d\	-my-	.	.	1ff	.
2B-\	.	1g	.	.	.
2c\	.	.	.	2ee\	.
[2d\	.	2f\	.	[2dd\	.
=133	=133	=133	=133	=133	=133
2d\]	.	2a\	.	4dd\]	.
.	.	.	.	4cc\	.
2G/	.	2g\	.	4b-\	.
.	.	.	.	4a/	.
2c\	.	2e\	.	2g/	.
2F/	.	2f\	.	1cc	.
1G	.	1d	.	.	.
.	.	.	.	2bni\	.
=134	=134	=134	=134	=134	=134
0.gl	-e.	0.cl	-e.	0.ccl	-e.
!!LO:LB:i:g=z
=||	=||	=||	=||	=||	=||
!!!RDF**kern: l=long note in original notation
!!!RDF**kern: i=editorial accidental
!!!RDF**kern: V=start of tuplet marker
!!!RDF**kern: Z=end of tuplet marker
!!!ENC: Chris Gage 06-25-2012
!!!END: 2015/10/29/
!!!EED: Jesse Rodin
!!!EEV: 2015/10/31/
!!!ONB: Translated from MusicXML and edited on 2015/10/31/ by Craig Sapp
!!muse2ps: C^@{COM}^i2I150v100,100,120Q16z18c62l2600
!!!COM: Ockeghem, Johannes
!!!CDT: ~1425-1497/02/06
!!!OTL: Ma maistresse
!!!AGN: Song; Chanson
!!!SCT: Ock3012
!!!SCA: Ock3012
!!!voices: 3
*thru	*thru	*thru	*thru	*thru	*thru
*staff3	*	*staff2	*staff2	*staff1	*staff1
*Ivox	*	*Ivox	*	*Ivox	*
*I"Contra	*	*I"Tenor	*	*I"Discantus	*
*I'C	*	*I'T	*	*I'D	*
*>A	*>A	*>A	*>A	*>A	*>A
*clefGv2	*	*clefGv2	*	*clefG2	*
*k[b-]	*	*k[b-]	*	*k[b-]	*
*M3/1	*	*M3/1	*	*M3/1	*
*met(O)	*	*met(O)	*	*met(O)	*
=135-	=135	=135-	=135-	=135-	=135-
!	!	!	!	!LO:TX:Z=12:t=Virelai	!
1.F	Ma	0.f	Ma	0cc	Ma
2G/	.	.	.	.	.
1A	mais-	.	.	1a	mais-
=136	=136	=136	=136	=136	=136
1.B-	-tres-	1d	mais-	1.dd	-tres-
.	.	1.g	-tres-	.	.
2G/	.	.	.	2b-\	.
1G	-se	.	.	2.b-\	-se
.	.	2e\	.	.	.
.	.	.	.	4g/	.
=137	=137	=137	=137	=137	=137
1A	et	2.e\	-se	1cc	et
.	.	4c\	et	.	.
1F	ma	1f	ma	2dd\	ma
.	.	.	.	1ff	plus
1c	plus	1g	plus	.	.
.	.	.	.	2ee\	.
=138	=138	=138	=138	=138	=138
0F	qu'aul-	1f	qu'aul-	2dd\	qu'aul-
.	.	.	.	1cc	.
.	.	2c\	-tre a-	.	.
.	.	1f	.	2a/	-tre a-
1G	-tre a-	.	.	1g	.
.	.	2e\	.	.	.
=139	=139	=139	=139	=139	=139
2.B-\	-my-	2d\	-my-	1.f	-my-
.	.	2B-\	.	.	.
4A/	.	.	.	.	.
2F/	.	1A	.	.	.
2c\	.	.	.	2e/	.
2d\	.	2B-\	.	2d/	.
2e\	.	2A/	.	2c/	.
=140	=140	=140	=140	=140	=140
2f\	.	2F/	.	2.a/	.
1e	.	1c	.	.	.
.	.	.	.	8g/L	.
.	.	.	.	8a/J	.
.	.	.	.	4g/	.
.	.	.	.	4f/	.
1c	.	2F/	.	1f	.
.	.	1G	.	.	.
2B-\	.	.	.	2e/	.
=141	=141	=141	=141	=141	=141
1.c	-e,	0F	-e,	1f	-e,
.	.	.	.	1r	.
2.A/	De	.	.	.	.
.	.	2r	.	1f	De
4F/	.	.	.	.	.
2c\	.	2A/	De	.	.
=142	=142	=142	=142	=142	=142
2B-\	mon	2G/	mon	2e/	mon
2A/	.	1c	.	2c/	.
1G	de-	.	.	1d	de-
.	.	2Bni\	de-	.	.
1g	-sir	2c\	-sir	2c/	-sir
.	.	[2G/	.	2e/	.
=143	=143	=143	=143	=143	=143
2r	.	4G/]	.	2d/	.
.	.	4A/	.	.	.
2d\	la	4B-\	.	1g	.
.	.	4c\	.	.	.
2.c\	mor-	1A	.	.	.
.	.	.	.	2f/	la
4d\	.	.	.	.	.
1e	.	2G/	la	2g/	mor-
.	.	2c\	.	2a/	.
=144	=144	=144	=144	=144	=144
2d\	-tel-	2B-\	mor-	2g/	.
2c\	.	2c\	.	1cc	-tel-
2.f\	-le	1d	-tel-	.	.
.	.	.	.	2b-\	-le e-
4g\	.	.	.	.	.
1a	.	2c\	-le e-	2cc\	.
.	.	2f\	.	2dd\	.
=145	=145	=145	=145	=145	=145
2r	.	2e\	-ne-	2cc\	-ne-
2a\	e-	2f\	.	1ff	-my-
2g\	.	1g	-my-	.	.
2b-\	-ne-	.	.	2ee\	.
2a\	-my-	2f\	.	1ff	-e,
2f\	.	2a\	.	.	.
=146	=146	=146	=146	=146	=146
2g\	-e,	2g\	.	1r	.
2e\	.	1cc	.	.	.
1d	Par-	.	.	1ff	Par-
.	.	2bni\	.	.	.
1c	-faic-	2.cc\	-e,	2ee\	-faic-
.	.	.	.	[2gg\	.
.	.	4b-i\	.	.	.
=147	=147	=147	=147	=147	=147
1c	-te en	2g\	.	2gg\]	.
.	.	2a\	Par-	2cc\	-te en
1G	biens	1.g	-faic-	2dd\	biens
.	.	.	.	1ee	.
2r	.	.	.	.	.
2c\	s'on-	2e\	-te en	2ee\	s'on-
=148	=148	=148	=148	=148	=148
2A/	-ques	2c\	biens	1ee	-ques
2G/	.	2g\	.	.	.
2c\	.	2r	.	1ee	maiz
2r	.	2.c\	s'on-	.	.
2g\	mais	.	.	1ee	le
.	.	4B-\	.	.	.
2a\	le	2A/	.	.	.
=149	=149	=149	=149	=149	=149
1b-	fut	2G/	-ques	2.gg\	fut
.	.	2.B-\	maiz	.	.
.	.	.	.	4ff\	.
1g	.	.	.	1dd	.
.	.	4A/	.	.	.
.	.	2B-\	.	.	.
2a\	.	2A/	.	[1ee	.
2b-\	.	2G/	le	.	.
=150	=150	=150	=150	=150	=150
1.cc	fem-	2.A/	fut	1ee]	.
.	.	4G/	.	.	.
.	.	2A/	fem-	1ff	fem-
2b-\	.	2B-\	.	.	.
1g	.	2c\	.	[1ee	.
.	.	2G/	.	.	.
=151	=151	=151	=151	=151	=151
1a	.	2.c\	.	2ee\]	.
.	.	.	.	2cc\	.
.	.	4A/	.	.	.
2g\	.	2B-\	.	2dd\	.
1g	.	2c\	.	1cc	.
.	.	1d	.	.	.
2f\	.	.	.	2bni\	.
=152	=152	=152	=152	=152	=152
0g	-me,	0.c	-me,	1cc	-me,
.	.	.	.	1r	.
1e	Cel-	.	.	2a/	Cel-
.	.	.	.	2b-\	.
=153	=153	=153	=153	=153	=153
2.f\	-le	1r	.	2dd\	-le
.	.	.	.	1cc	.
4e\	.	.	.	.	.
1c	.	2r	.	.	.
.	.	2c\	Cel-	2a/	.
[1B-	seu-	2d\	-le	2b-\	seu-
.	.	2e\	seu-	2g/	.
=154	=154	=154	=154	=154	=154
2B-\]	.	1.f	-le	1f	-le
2A/	.	.	.	.	.
2F/	-le	.	.	1r	.
2B-\	de	2d\	de	.	.
2c\	.	2e-i\	qui	1cc	de
2A/	.	2c\	.	.	.
=155	=155	=155	=155	=155	=155
0B-	qui	1B-	.	1.dd	qui
.	.	2r	.	.	.
.	.	2B-\	court	2cc\	.
1G	.	2d\	.	2.b-\	.
.	.	2e\	.	.	.
.	.	.	.	4a/	.
=156	=156	=156	=156	=156	=156
0F	court	1f	.	1a	court
.	.	1.a	bruit	1r	.
1A	bruit	.	.	1cc	bruit
.	.	2d\	.	.	.
=157	=157	=157	=157	=157	=157
0.B-	et	1d	et	1.dd	et
.	.	2r	.	.	.
.	.	2d\	fa-	1ff	fa-
.	.	2f\	.	.	.
.	.	2g\	.	4ee\	.
.	.	.	.	4dd\	.
=158	=158	=158	=158	=158	=158
0A	fa-	1.a	.	1.cc	.
.	.	2f\	.	2dd\	.
1G	.	2g\	.	2ee\	.
.	.	2e\	.	4dd\	.
.	.	.	.	4ee\	.
=159	=159	=159	=159	=159	=159
2B-\	.	2d\	.	1ff	.
2A/	.	2.a\	.	.	.
2c\	.	.	.	2ee\	.
.	.	4g\	.	.	.
2d\	.	2f\	.	1dd	.
1A	.	1e	.	.	.
.	.	.	.	2cc#i\	.
=160	=160	=160	=160	=160	=160
1a	-me,	1.d	-me	0dd	-me
1d	.	.	.	.	.
.	.	4c\	.	.	.
.	.	4B-\	.	.	.
1e	D'es-	2.A/	D'es-	1cc	D'es-
.	.	4G/	.	.	.
=161	=161	=161	=161	=161	=161
1.f	-tre	1.d	-tre	1b-	-tre
.	.	.	.	2a/	.
2e\	sans	2c\	sans	1a	sans
2c\	.	2A/	.	.	.
2d\	.	2B-\	.	2g/	.
=162	=162	=162	=162	=162	=162
2.f\	.	2d\	.	2.b-\	.
.	.	2c\	.	.	.
4e\	.	.	.	4a/	.
4d\	.	1F	.	4g/	.
4c\	.	.	.	4f/	.
1c	.	.	.	1f	.
.	.	1G	.	.	.
2B-\	.	.	.	2e/	.
=163	=163	=163	=163	=163	=163
0c	per,	0F	per,	1f	per,
.	.	.	.	1r	.
1F	ne	1a	ne	1ff	ne
=164	=164	=164	=164	=164	=164
2G/	vous	2g\	vous	2ee\	vous
1B-	.	1f	.	2.dd\	.
.	.	.	.	4cc\	.
2c\	ver-	2e\	.	2.cc\	.
[1F	-ray	1f	ver-	.	.
.	.	.	.	4b-\	.
.	.	.	.	4a/	.
.	.	.	.	4g/	.
=165	=165	=165	=165	=165	=165
0F]	.	1a	-ray	2cc\	ver-
.	.	.	.	2dd\	.
.	.	2r	.	1ff	-ray
.	.	2a\	je	.	.
1G	je	2g\	.	2ee\	je
.	.	[2b-\	my-	2dd\	.
=166	=166	=166	=166	=166	=166
2G/	my-	2b-\]	.	1gg	my-
2c\	.	1a	.	.	.
2d\	.	.	.	1ff	.
2B-\	.	1g	.	.	.
2c\	.	.	.	2ee\	.
[2d\	.	2f\	.	[2dd\	.
=167	=167	=167	=167	=167	=167
2d\]	.	2a\	.	4dd\]	.
.	.	.	.	4cc\	.
2G/	.	2g\	.	4b-\	.
.	.	.	.	4a/	.
2c\	.	2e\	.	2g/	.
2F/	.	2f\	.	1cc	.
1G	.	1d	.	.	.
.	.	.	.	2bni\	.
=168	=168	=168	=168	=168	=168
0.gl	-e?	0.cl	-e?	0.ccl	-e?
!!LO:LB:i:g=z
==	==	==	==	==	==
*-	*-	*-	*-	*-	*-
!!!RDF**kern: l=long note in original notation
!!!RDF**kern: i=editorial accidental
!!!RDF**kern: V=start of tuplet marker
!!!RDF**kern: Z=end of tuplet marker
!!!ENC: Chris Gage 06-25-2012
!!!END: 2015/10/29/
!!!EED: Jesse Rodin
!!!EEV: 2015/10/31/
!!!ONB: Translated from MusicXML and edited on 2015/10/31/ by Craig Sapp
!!muse2ps: C^@{COM}^i2I100v115,115,130Q16z18l2600c53
